icons/virus-shield_fill.svg

<svg width="48" height="48" viewBox="0 0 48 48" fill="none" xmlns="http://www.w3.org/2000/svg">
<path fill-rule="evenodd" clip-rule="evenodd" d="M8.00006 11.0781V23.26C8.00006 29.2165 10.6733 37.3394 22.2326 41.68C23.3702 42.1067 24.6298 42.1067 25.7674 41.68C37.3218 37.3474 39.9999 29.1653 39.9999 23.26V11.0781C40.0033 10.6196 39.8706 10.17 39.6179 9.78339C39.3652 9.39677 39.0032 9.08963 38.5755 8.89898C33.9804 6.94352 29.0135 5.95615 24 6.00149C18.9865 5.95615 14.0196 6.94352 9.42447 8.89898C8.99682 9.08963 8.63483 9.39677 8.38211 9.78339C8.12939 10.17 7.99671 10.6196 8.00006 11.0781ZM18.1669 24.1429H17.0905C16.9449 24.6065 16.5117 24.9428 16 24.9428C15.3688 24.9428 14.8571 24.4312 14.8571 23.8V22.2C14.8571 21.5688 15.3688 21.0571 16 21.0571C16.5117 21.0571 16.9449 21.3935 17.0905 21.8571H18.1669C18.3212 21.0652 18.6327 20.3296 19.0676 19.6839L18.3999 19.0162C17.953 19.4544 17.2355 19.4517 16.7919 19.0081C16.3456 18.5618 16.3456 17.8382 16.7919 17.3919L18.3919 15.7919C18.8382 15.3455 19.5618 15.3455 20.0081 15.7919C20.4517 16.2355 20.4544 16.953 20.0162 17.4L20.6839 18.0676C21.3295 17.6327 22.0652 17.3212 22.8571 17.1669V16.0905C22.3935 15.9449 22.0572 15.5117 22.0572 15C22.0572 14.3688 22.5688 13.8571 23.2 13.8571H24.8C25.4312 13.8571 25.9429 14.3688 25.9429 15C25.9429 15.5117 25.6065 15.9449 25.1429 16.0905V17.1669C25.9348 17.3212 26.6705 17.6327 27.3162 18.0676L27.9838 17.4C27.5456 16.953 27.5482 16.2355 27.9919 15.7919C28.4382 15.3455 29.1618 15.3455 29.6081 15.7919L31.2081 17.3919C31.6544 17.8382 31.6544 18.5618 31.2081 19.0081C30.7645 19.4517 30.047 19.4544 29.6001 19.0162L28.9324 19.6839C29.3673 20.3295 29.6788 21.0652 29.8331 21.8571H30.9095C31.0551 21.3935 31.4883 21.0571 32 21.0571C32.6312 21.0571 33.1429 21.5688 33.1429 22.2V23.8C33.1429 24.4312 32.6312 24.9428 32 24.9428C31.4883 24.9428 31.0551 24.6065 30.9095 24.1429H29.8331C29.7172 24.7376 29.5127 25.3006 29.2338 25.8175L30.4001 26.9838C30.847 26.5456 31.5645 26.5483 32.0081 26.9919C32.4544 27.4382 32.4544 28.1619 32.0081 28.6082L30.4081 30.2082C29.9618 30.6545 29.2382 30.6545 28.7919 30.2082C28.3483 29.7646 28.3456 29.047 28.7838 28.6001L27.7744 27.5906C27.0279 28.205 26.129 28.641 25.1429 28.8331V29.9095C25.6065 30.0551 25.9429 30.4883 25.9429 31C25.9429 31.6312 25.4312 32.1429 24.8 32.1429H24.0112L24 32.1429L23.9888 32.1429H23.2C22.5688 32.1429 22.0572 31.6312 22.0572 31C22.0572 30.4883 22.3935 30.0551 22.8571 29.9095V28.833C22.0652 28.6788 21.3295 28.3673 20.6839 27.9323L20.0162 28.6C20.4544 29.047 20.4517 29.7646 20.0081 30.2082C19.5618 30.6545 18.8382 30.6545 18.3919 30.2082L16.7919 28.6082C16.3456 28.1619 16.3456 27.4382 16.7919 26.9919C17.2355 26.5483 17.953 26.5456 18.3999 26.9838L19.0676 26.3161C18.6327 25.6704 18.3212 24.9347 18.1669 24.1429Z" fill="black"/>
</svg>

<svg
  xmlns="http://www.w3.org/2000/svg"
  width="24"
  height="24"
  viewBox="0 0 24 24"
  fill="none"
  stroke="currentColor"
  stroke-width="2"
  stroke-linecap="round"
  stroke-linejoin="round"
>
  <path
    fill-rule="evenodd"
    d="M8 11.078V23.26c0 5.956 2.673 14.08 14.233 18.42a5.04 5.04 0 0 0 3.534 0C37.322 37.347 40 29.165 40 23.26V11.078a2.33 2.33 0 0 0-.382-1.295 2.4 2.4 0 0 0-1.043-.884A36.4 36.4 0 0 0 24 6.001 36.4 36.4 0 0 0 9.424 8.9c-.427.19-.79.498-1.042.884A2.33 2.33 0 0 0 8 11.078m10.167 13.065H17.09a1.143 1.143 0 0 1-2.233-.343v-1.6a1.143 1.143 0 0 1 2.233-.343h1.077a5.9 5.9 0 0 1 .9-2.173l-.667-.668a1.143 1.143 0 0 1-1.608-1.624l1.6-1.6a1.143 1.143 0 0 1 1.624 1.608l.668.668a5.9 5.9 0 0 1 2.173-.901V16.09a1.143 1.143 0 0 1 .343-2.233h1.6a1.143 1.143 0 0 1 .343 2.233v1.077a5.9 5.9 0 0 1 2.173.9l.668-.667a1.143 1.143 0 0 1 1.624-1.608l1.6 1.6a1.143 1.143 0 0 1-1.608 1.624l-.668.668a5.9 5.9 0 0 1 .901 2.173h1.077a1.143 1.143 0 0 1 2.233.343v1.6a1.143 1.143 0 0 1-2.233.343h-1.077a5.9 5.9 0 0 1-.6 1.674l1.167 1.167a1.143 1.143 0 0 1 1.608 1.624l-1.6 1.6a1.143 1.143 0 0 1-1.624-1.608l-1.01-1.01a5.9 5.9 0 0 1-2.631 1.243v1.077a1.143 1.143 0 0 1-.343 2.233h-1.6a1.143 1.143 0 0 1-.343-2.233v-1.077a5.9 5.9 0 0 1-2.173-.9l-.668.667a1.143 1.143 0 0 1-1.624 1.608l-1.6-1.6a1.143 1.143 0 0 1 1.608-1.624l.668-.668a5.9 5.9 0 0 1-.901-2.173"
    clip-rule="evenodd"
  />
</svg>
